x-pack/platform/plugins/shared/content_connectors/public/assets/icons/oracle.svg

<svg width="64" height="64" viewBox="0 0 64 64" fill="none" xmlns="http://www.w3.org/2000/svg">
<path d="M27.6898 33.4076H31.9107L29.6812 29.807L25.5821 36.3102H23.7181L28.7035 28.5081C28.8122 28.3524 28.9566 28.225 29.1246 28.1366C29.2926 28.0482 29.4794 28.0014 29.6693 28C29.8591 27.9987 30.0466 28.0428 30.2159 28.1288C30.3851 28.2148 30.5313 28.3401 30.6422 28.4942L35.6415 36.3102H33.7775L32.8995 34.8561H28.6287L27.6981 33.4076M47.0663 34.8561V28.0788H45.4821V35.5236C45.4818 35.6271 45.5025 35.7295 45.543 35.8247C45.5834 35.9199 45.6428 36.006 45.7175 36.0776C45.7925 36.1543 45.8821 36.2151 45.9811 36.2565C46.08 36.2979 46.1863 36.319 46.2936 36.3185H53.4947L54.4336 34.8644H47.058M20.8737 33.6458C21.6119 33.6458 22.3199 33.3525 22.8419 32.8305C23.3639 32.3085 23.6572 31.6005 23.6572 30.8623C23.6572 30.1241 23.3639 29.4161 22.8419 28.8941C22.3199 28.372 21.6119 28.0788 20.8737 28.0788H13.9495V36.3102H15.531V29.5356H20.7767C21.13 29.5356 21.4689 29.676 21.7187 29.9258C21.9686 30.1757 22.1089 30.5145 22.1089 30.8678C22.1089 31.2211 21.9686 31.56 21.7187 31.8098C21.4689 32.0597 21.13 32.2 20.7767 32.2H16.3148L21.0398 36.3102H23.3359L20.1619 33.6458H20.8737ZM4.22247 36.3102H9.00567C10.0784 36.2824 11.0978 35.8367 11.8467 35.0681C12.5955 34.2996 13.0146 33.2689 13.0146 32.1959C13.0146 31.1228 12.5955 30.0922 11.8467 29.3236C11.0978 28.5551 10.0784 28.1094 9.00567 28.0816H4.22247C3.67319 28.0673 3.12661 28.1632 2.61497 28.3635C2.10333 28.5639 1.637 28.8647 1.24346 29.2481C0.849917 29.6316 0.537145 30.09 0.323585 30.5962C0.110024 31.1025 0 31.6464 0 32.1959C0 32.7453 0.110024 33.2893 0.323585 33.7955C0.537145 34.3018 0.849917 34.7602 1.24346 35.1436C1.637 35.5271 2.10333 35.8279 2.61497 36.0282C3.12661 36.2286 3.67319 36.3245 4.22247 36.3102ZM8.89765 34.8617H4.32772C3.6363 34.8394 2.98067 34.549 2.49946 34.0521C2.01825 33.5551 1.7492 32.8904 1.7492 32.1986C1.7492 31.5069 2.01825 30.8422 2.49946 30.3452C2.98067 29.8483 3.6363 29.5579 4.32772 29.5356H8.89765C9.25459 29.5241 9.6102 29.5845 9.94335 29.7131C10.2765 29.8418 10.5804 30.0361 10.837 30.2845C11.0935 30.5329 11.2975 30.8304 11.4368 31.1592C11.5762 31.488 11.648 31.8415 11.648 32.1986C11.648 32.5558 11.5762 32.9093 11.4368 33.2381C11.2975 33.5669 11.0935 33.8644 10.837 34.1128C10.5804 34.3612 10.2765 34.5555 9.94335 34.6842C9.6102 34.8128 9.25459 34.8732 8.89765 34.8617ZM38.9457 36.3102H43.8286L44.7536 34.8617H39.0537C38.6967 34.8732 38.3411 34.8128 38.008 34.6842C37.6748 34.5555 37.371 34.3612 37.1144 34.1128C36.8578 33.8644 36.6538 33.5669 36.5145 33.2381C36.3752 32.9093 36.3034 32.5558 36.3034 32.1986C36.3034 31.8415 36.3752 31.488 36.5145 31.1592C36.6538 30.8304 36.8578 30.5329 37.1144 30.2845C37.371 30.0361 37.6748 29.8418 38.008 29.7131C38.3411 29.5845 38.6967 29.5241 39.0537 29.5356H43.6929L44.629 28.0816H38.9457C38.3964 28.0673 37.8498 28.1632 37.3382 28.3635C36.8265 28.5639 36.3602 28.8647 35.9667 29.2481C35.5731 29.6316 35.2603 30.09 35.0468 30.5962C34.8332 31.1025 34.7232 31.6464 34.7232 32.1959C34.7232 32.7453 34.8332 33.2893 35.0468 33.7955C35.2603 34.3018 35.5731 34.7602 35.9667 35.1436C36.3602 35.5271 36.8265 35.8279 37.3382 36.0282C37.8498 36.2286 38.3964 36.3245 38.9457 36.3102ZM58.2973 34.8617C57.717 34.8619 57.1525 34.6727 56.6895 34.3227C56.2266 33.9728 55.8906 33.4813 55.7326 32.9229H62.4961L63.4267 31.4716H55.7326C55.8902 30.913 56.2261 30.4213 56.6891 30.0712C57.1521 29.7212 57.7169 29.5322 58.2973 29.5329H62.9392L63.8671 28.0788H58.1893C57.1165 28.1066 56.0971 28.5523 55.3483 29.3209C54.5994 30.0894 54.1803 31.12 54.1803 32.1931C54.1803 33.2662 54.5994 34.2968 55.3483 35.0654C56.0971 35.8339 57.1165 36.2796 58.1893 36.3074H63.0722L64 34.8589H58.2945" fill="#C74634"/>
</svg>

<svg xmlns="http://www.w3.org/2000/svg" width="64" height="64" fill="none"><path fill="#C74634" d="M27.69 33.408h4.22l-2.229-3.601-4.099 6.503h-1.864l4.985-7.802a1.19 1.19 0 0 1 1.94-.014l4.999 7.816h-1.864l-.878-1.454h-4.271l-.93-1.448m19.367 1.448V28.08h-1.584v7.445a.76.76 0 0 0 .236.554.8.8 0 0 0 .576.24h7.2l.94-1.454h-7.376m-26.184-1.218a2.784 2.784 0 0 0 0-5.567H13.95v8.231h1.581v-6.774h5.246a1.332 1.332 0 0 1 0 2.664h-4.462l4.725 4.11h2.296l-3.174-2.664zM4.222 36.31h4.784a4.115 4.115 0 0 0 0-8.228H4.222a4.116 4.116 0 1 0 0 8.228m4.676-1.448h-4.57a2.665 2.665 0 0 1 0-5.326h4.57a2.666 2.666 0 1 1 0 5.326m30.048 1.448h4.883l.925-1.448h-5.7a2.665 2.665 0 1 1 0-5.326h4.639l.936-1.454h-5.683a4.116 4.116 0 1 0 0 8.228m19.351-1.448a2.665 2.665 0 0 1-2.564-1.94h6.763l.93-1.45h-7.693a2.66 2.66 0 0 1 2.564-1.94h4.642l.928-1.453H58.19a4.115 4.115 0 0 0 0 8.228h4.883L64 34.86h-5.706"/></svg>
